X:38
T:New German Waltz
S:John Moore's Book 2
Z:Transcribed by Taz Tarry 04/2021
%%VWML: Moore1-4494-p32-0
F:http://www.vwml.org/record/Moore2/4494/p32
M:3/8
L:1/8
K:G
d/c/|BBA|G3/2(g/f/e/)|d(d^c)|d(d^c)|BBA|!trill!G2g|{a}gfe|d2:|
d|(ad).d|(bd).d|dc'b|(ba)f|gfe|dfg|agf|!trill!g2:|
B/c/|dBd|gfe|edd|d2 B/d/|(dc)c|c2 A/c/|cBB|B2 B/c/|
dBd|gfe|edd|d2 B/c/|dcc|c2 A/F/|Ggg|g2||

